X: 2052
T: New la Dolphin
%R: _
B: Henry Playford "Apollo's Banquet", London 1687 (5th Edition)
F: https://archive.org/details/apollosbanquetco01rugg
Z: 2017 John Chambers <jc:trillian.mit.edu>
M: 3/2
L: 1/8
K: G
% - - - - - - - - - -
zg |\
g6 a2a3(g/a/) | b3ag2 fea3g |\
f3(e/f/) g2B2 c3d | e3fe2 d2c3B |\
A6 G>FG3A | F3GA2 d>Be3B |\
c3de2 fee3d |
[1 d6- d4 :|[2 d6 |][M:C|] AB |\
c2e2 (=fe)(dc) | Bcd2 G2ef |\
g2fg a>ba>g | f4 d2ef |\
g2fg a2b2 | B2Bc d2e2 |
A2cB AGF2 | [1 G6 B2 :|[2 B6 |][M:3/2]\
g2d2g2 e3fg2 | a3bag f3ed2 |\
g2d2g2 e3fg2 | a2g3f e4d2 |\
c2c3d B3cd2 |  e2c3B A4A2 |
c2c3d B3cd2 | e2c3B A4G2 ::\
B2B2G2 c6 | B2cBAG Hd6 |\
f3ga2 e3fg2 | d2B2e2 ^c3BA2 |
a3gf2 b2agfe | fge3d d6 |\
=f2f3g e3e^f2 | g2f3g a4d2 |\
^f2f3g e3ef2 | gaa3g g6 |]
% - - - - - - - - - -

%%sep 1 1 500
%%sep 1 1 500

